; generated by PrusaSlicer 2.7.1+MacOS-arm64 on 2024-02-29 at 04:52:10 UTC


;
;
; 

; external perimeters extrusion width = 0.60mm
; perimeters extrusion width = 0.50mm
; infill extrusion width = 0.50mm
; solid infill extrusion width = 0.50mm
; top infill extrusion width = 0.45mm
; support material extrusion width = 0.38mm
; first layer extrusion width = 0.42mm

M73 P0 R168
M73 Q0 S171
M201 X1000 Y1000 Z200 E5000 ; sets maximum accelerations, mm/sec^2
M203 X200 Y200 Z12 E120 ; sets maximum feedrates, mm / sec
M204 S1250 T1250 ; sets acceleration (S) and retract acceleration (R), mm/sec^2
M205 X8.00 Y8.00 Z0.40 E4.50 ; sets the jerk limits, mm/sec
M205 S0 T0 ; sets the minimum extruding and travel feed rate, mm/sec

; printing object Sisyphus Assembly.stl id:0 copy 0
; stop printing object Sisyphus Assembly.stl id:0 copy 0

;TYPE:Custom
M862.3 P "MK3S" ; printer model check
M862.1 P0.4 ; nozzle diameter check
M115 U3.13.2 ; tell printer latest fw version
G90 ; use absolute coordinates
M83 ; extruder relative mode
M104 S215 ; set extruder temp
M140 S60 ; set bed temp
M190 S60 ; wait for bed temp
M109 S215 ; wait for extruder temp
G28 W ; home all without mesh bed level
G80 X89.3836 Y20.7556 W71.2328 H164.25 ; mesh bed levelling

G1 Z0.2 F720
G1 Y-3 F1000 ; go outside print area
G92 E0
G1 X60 E9 F1000 ; intro line
G1 X100 E12.5 F1000 ; intro line

G92 E0
M221 S95

; Don't change E values below. Excessive value can damage the printer.

M907 E538 ; set extruder motor current
G21 ; set units to millimeters
G90 ; use absolute coordinates
M83 ; use relative distances for extrusion
M900 K0.05 ; Filament gcode LA 1.5
M900 K30 ; Filament gcode LA 1.0

M107
;LAYER_CHANGE
;Z:0.2
;HEIGHT:0.2
;BEFORE_LAYER_CHANGE
G92 E0.0
;0.2


G1 E-.8 F2100
G1 Z.2 F720
;AFTER_LAYER_CHANGE
;0.2
G1 X105.804 Y22.998 F10800
G1 Z.2 F720
G1 E.8 F2100
M204 S800
;TYPE:Skirt/Brim
;WIDTH:0.42
G1 F1200
G1 X106.369 Y21.756 E.04278
G1 X108.159 Y20.944 E.06163
G1 X141.841 Y20.944 E1.05608
G1 X143.148 Y21.336 E.04278
G1 X144.196 Y22.998 E.06161
G1 X160.406 Y141.095 E3.73757
G1 X160.428 Y163.523 E.70321
G1 X160.036 Y164.83 E.04278
G1 X159.427 Y165.461 E.0275
G1 X132.776 Y184.378 E1.02473
G1 X131.4 Y184.817 E.04529
G1 X118.6 Y184.817 E.40134
G1 X117.224 Y184.378 E.04529
G1 X90.573 Y165.461 E1.02473
G1 X89.734 Y164.385 E.04278
G1 X89.572 Y163.523 E.0275
G1 X89.594 Y141.095 E.70321
G1 X105.795 Y23.057 E3.7357
M204 S1000
; printing object Sisyphus Assembly.stl id:0 copy 0
;WIPE_START
G1 F8640
G1 X105.804 Y22.998 E-.01378
G1 X106.369 Y21.756 E-.31506
G1 X108.159 Y20.944 E-.45385
G1 X108.234 Y20.944 E-.01731
;WIPE_END
G1 Z.6 F720
G1 X110.3 Y76.243 F10800
G1 Z.2 F720
G1 E.8 F2100
M204 S800
;TYPE:Support material interface
;WIDTH:0.38
G1 F1200
G1 X110.386 Y76.157 E.00341
G1 X110.563 Y76.157 E.00496
G1 X110.563 Y74.897 E.03532
G1 X111.078 Y74.897 E.01443
G1 X111.078 Y76.157 E.03532
G1 X111.594 Y76.157 E.01446
G1 X111.594 Y74.897 E.03532
G1 X112.11 Y74.897 E.01446
G1 X112.11 Y76.157 E.03532
G1 X112.625 Y76.157 E.01443
G1 X112.625 Y74.897 E.03532
G1 X113.141 Y74.897 E.01446
G1 X113.141 Y76.157 E.03532
G1 X113.656 Y76.157 E.01443
G1 X113.656 Y74.897 E.03532
G1 X114.172 Y74.897 E.01446
G1 X114.172 Y76.157 E.03532
G1 X114.688 Y76.157 E.01446
G1 X114.688 Y74.897 E.03532
G1 X115.203 Y74.897 E.01443
G1 X115.278 Y77.213 E.06495
G1 X115.719 Y77.213 E.01236
G1 X115.719 Y74.897 E.06491
M204 S1000
;WIPE_START
G1 F8640
G1 X115.719 Y77.213 E-.53477
G1 X115.278 Y77.213 E-.10183
G1 X115.255 Y76.506 E-.1634
;WIPE_END
G1 Z.6 F720
G1 X114.91 Y76.613 F10800
G1 Z.2 F720
G1 E.8 F2100
M204 S800
;TYPE:Support material
;WIDTH:0.42
G1 F1200
G1 X114.91 Y77.081 E.01467
G1 X110.45 Y77.081 E.13984
G1 X110.45 Y76.613 E.01467
G1 X110.538 Y76.525 E.0039
G1 X114.87 Y76.573 E.13584
M204 S1000
;WIPE_START
G1 F8640
G1 X111.405 Y76.535 E-.8
;WIPE_END
G1 Z.6 F720
G1 X118.053 Y75.368 F10800
G1 Z.2 F720
G1 E.8 F2100
M204 S800
;TYPE:Support material interface
;WIDTH:0.38
G1 F1200
G1 X118.053 Y74.897 E.0132
G1 X118.297 Y74.897 E.00684
G1 X118.297 Y77.213 E.06491
G1 X118.722 Y77.213 E.01191
G1 X118.722 Y76.461 E.02108
G1 X118.813 Y76.37 E.00361
G1 X118.813 Y74.897 E.04129
G1 X119.17 Y74.897 E.01001
M204 S1000
;WIPE_START
G1 F8640
G1 X118.813 Y74.897 E-.08243
G1 X118.813 Y76.37 E-.34012
G1 X118.722 Y76.461 E-.02972
G1 X118.722 Y77.213 E-.17364
G1 X118.297 Y77.213 E-.09813
G1 X118.297 Y76.884 E-.07596
;WIPE_END
G1 Z.6 F720
G1 X118.924 Y76.259 F10800
G1 Z.2 F720
G1 E.8 F2100
M204 S800
G1 F1200
G1 X119.026 Y76.157 E.00404
G1 X119.328 Y76.157 E.00846
G1 X119.328 Y74.897 E.03532
G1 X119.844 Y74.897 E.01446
G1 X119.844 Y76.157 E.03532
G1 X120.359 Y76.157 E.01443
G1 X120.359 Y74.897 E.03532
G1 X120.875 Y74.897 E.01446
G1 X120.875 Y76.157 E.03532
G1 X121.391 Y76.157 E.01446
G1 X121.391 Y74.897 E.03532
G1 X121.906 Y74.897 E.01443
G1 X121.906 Y76.157 E.03532
G1 X122.422 Y76.157 E.01446
G1 X122.422 Y74.897 E.03532
G1 X122.938 Y74.897 E.01446
G1 X122.938 Y76.157 E.03532
G1 X123.453 Y76.157 E.01443
G1 X123.453 Y74.897 E.03532
G1 X123.811 Y74.897 E.01003
M204 S1000
;WIPE_START
G1 F8640
G1 X123.453 Y74.897 E-.08266
G1 X123.453 Y76.157 E-.29094
G1 X122.938 Y76.157 E-.11891
G1 X122.938 Y74.897 E-.29094
G1 X122.866 Y74.897 E-.01655
;WIPE_END
G1 Z.6 F720
G1 X123.55 Y76.613 F10800
G1 Z.2 F720
M73 P0 R167
G1 E.8 F2100
M204 S800
;TYPE:Support material
;WIDTH:0.42
G1 F1200
G1 X123.55 Y77.081 E.01467
G1 X119.09 Y77.081 E.13984
G1 X119.09 Y76.613 E.01467
G1 X119.178 Y76.525 E.0039
G1 X123.51 Y76.573 E.13584
M204 S1000
G1 X123.969 Y77.213 F10800
M204 S800
;TYPE:Support material interface
;WIDTH:0.38
G1 F1200
G1 X123.969 Y74.897 E.06491
G1 X124.484 Y74.897 E.01443
G1 X124.484 Y77.213 E.06491
G1 X125 Y77.213 E.01446
G1 X125 Y74.897 E.06491
G1 X125.516 Y74.897 E.01446
G1 X125.516 Y77.213 E.06491
G1 X126.031 Y77.213 E.01443
G1 X126.031 Y74.897 E.06491
G1 X126.389 Y74.897 E.01003
M204 S1000
;WIPE_START
G1 F8640
G1 X126.031 Y74.897 E-.08266
G1 X126.031 Y77.213 E-.53477
G1 X125.516 Y77.213 E-.11891
G1 X125.516 Y76.937 E-.06366
;WIPE_END
G1 Z.6 F720
G1 X126.284 Y76.259 F10800
G1 Z.2 F720
G1 E.8 F2100
M204 S800
G1 F1200
G1 X126.386 Y76.157 E.00404
G1 X126.547 Y76.157 E.00451
G1 X126.547 Y74.897 E.03532
G1 X127.062 Y74.897 E.01443
G1 X127.062 Y76.157 E.03532
G1 X127.578 Y76.157 E.01446
G1 X127.578 Y74.897 E.03532
G1 X128.094 Y74.897 E.01446
G1 X128.094 Y76.157 E.03532
G1 X128.609 Y76.157 E.01443
G1 X128.609 Y74.897 E.03532
G1 X129.125 Y74.897 E.01446
G1 X129.125 Y76.157 E.03532
G1 X129.641 Y76.157 E.01446
G1 X129.641 Y74.897 E.03532
G1 X130.156 Y74.897 E.01443
G1 X130.156 Y76.157 E.03532
G1 X130.672 Y76.157 E.01446
G1 X130.672 Y74.897 E.03532
G1 X131.187 Y74.897 E.01443
G1 X131.187 Y76.37 E.04129
G1 X131.278 Y76.461 E.00361
G1 X131.278 Y77.213 E.02108
G1 X131.703 Y77.213 E.01191
G1 X131.703 Y74.897 E.06491
G1 X131.947 Y74.897 E.00684
G1 X131.947 Y75.368 E.0132
M204 S1000
;WIPE_START
G1 F8640
G1 X131.947 Y74.897 E-.10876
G1 X131.703 Y74.897 E-.05634
G1 X131.703 Y77.213 E-.53477
G1 X131.278 Y77.213 E-.09813
G1 X131.278 Y77.204 E-.002
;WIPE_END
G1 Z.6 F720
G1 X130.91 Y76.613 F10800
G1 Z.2 F720
G1 E.8 F2100
M204 S800
;TYPE:Support material
;WIDTH:0.42
G1 F1200
G1 X130.91 Y77.081 E.01467
G1 X126.45 Y77.081 E.13984
G1 X126.45 Y76.613 E.01467
G1 X126.538 Y76.525 E.0039
G1 X130.87 Y76.573 E.13584
M204 S1000
;WIPE_START
G1 F8640
M73 Q0 S170
G1 X127.405 Y76.535 E-.8
;WIPE_END
G1 Z.6 F720
G1 X134.281 Y74.897 F10800
G1 Z.2 F720
G1 E.8 F2100
M204 S800
;TYPE:Support material interface
;WIDTH:0.38
G1 F1200
G1 X134.281 Y77.213 E.06491
G1 X134.722 Y77.213 E.01236
G1 X134.797 Y74.897 E.06495
G1 X135.155 Y74.897 E.01003
M204 S1000
;WIPE_START
G1 F8640
G1 X134.797 Y74.897 E-.08266
G1 X134.722 Y77.213 E-.53505
G1 X134.281 Y77.213 E-.10183
G1 X134.281 Y76.865 E-.08046
;WIPE_END
G1 Z.6 F720
G1 X134.908 Y76.275 F10800
G1 Z.2 F720
G1 E.8 F2100
M204 S800
G1 F1200
G1 X135.026 Y76.157 E.00468
G1 X135.312 Y76.157 E.00802
G1 X135.312 Y74.897 E.03532
G1 X135.828 Y74.897 E.01446
G1 X135.828 Y76.157 E.03532
G1 X136.344 Y76.157 E.01446
G1 X136.344 Y74.897 E.03532
G1 X136.859 Y74.897 E.01443
G1 X136.859 Y76.157 E.03532
G1 X137.375 Y76.157 E.01446
G1 X137.375 Y74.897 E.03532
G1 X137.89 Y74.897 E.01443
G1 X137.89 Y76.157 E.03532
G1 X138.406 Y76.157 E.01446
G1 X138.406 Y74.897 E.03532
G1 X138.922 Y74.897 E.01446
G1 X138.922 Y76.157 E.03532
G1 X139.437 Y76.157 E.01443
G1 X139.437 Y74.897 E.03532
G1 X139.795 Y74.897 E.01003
M204 S1000
;WIPE_START
G1 F8640
G1 X139.437 Y74.897 E-.08266
G1 X139.437 Y76.157 E-.29094
G1 X138.922 Y76.157 E-.11891
G1 X138.922 Y74.897 E-.29094
G1 X138.85 Y74.897 E-.01655
;WIPE_END
G1 Z.6 F720
G1 X141.209 Y75.319 F10800
G1 Z.2 F720
G1 E.8 F2100
M204 S800
G1 F1200
G1 X141.209 Y74.897 E.01183
G1 X140.984 Y74.897 E.00631
G1 X140.984 Y77.213 E.06491
G1 X140.469 Y77.213 E.01443
G1 X140.469 Y74.897 E.06491
G1 X139.953 Y74.897 E.01446
G1 X139.953 Y77.213 E.06491
M204 S1000
G1 X139.55 Y76.613 F10800
M204 S800
;TYPE:Support material
;WIDTH:0.42
G1 F1200
G1 X139.55 Y77.081 E.01467
G1 X135.09 Y77.081 E.13984
G1 X135.09 Y76.613 E.01467
G1 X135.178 Y76.525 E.0039
G1 X139.51 Y76.573 E.13584
M204 S1000
;WIPE_START
G1 F8640
G1 X136.045 Y76.535 E-.8
;WIPE_END
G1 Z.6 F720
G1 X141.841 Y69.634 F10800
G1 Z.2 F720
G1 E.8 F2100
M204 S800
G1 F1200
G1 X144.157 Y69.634 E.07262
G1 X144.157 Y77.529 E.24754
G1 X141.577 Y77.529 E.08089
G1 X141.577 Y74.529 E.09406
G1 X133.895 Y74.529 E.24086
G1 X133.895 Y77.58 E.09566
G1 X134.67 Y77.58 E.0243
G1 X134.67 Y84.59 E.21979
G1 X131.33 Y84.59 E.10472
G1 X131.33 Y77.58 E.21979
G1 X132.315 Y77.58 E.03088
G1 X132.315 Y74.529 E.09566
G1 X117.685 Y74.529 E.45871
G1 X117.685 Y77.58 E.09566
G1 X118.67 Y77.58 E.03088
G1 X118.67 Y84.59 E.21979
G1 X115.33 Y84.59 E.10472
G1 X115.33 Y77.58 E.21979
G1 X116.105 Y77.58 E.0243
G1 X116.105 Y74.529 E.09566
G1 X108.423 Y74.529 E.24086
G1 X108.423 Y77.529 E.09406
G1 X105.843 Y77.529 E.08089
G1 X105.843 Y69.634 E.24754
G1 X108.159 Y69.634 E.07262
G1 X108.159 Y23.321 E1.45211
G1 X141.841 Y23.321 E1.05608
G1 X141.841 Y69.577 E1.45032
M204 S1000
G1 X143.435 Y77.359 F10800
M204 S800
G1 F1200
G1 X143.435 Y69.973 E.23158
G1 X143.016 Y69.973 E.01314
G1 X143.016 Y77.19 E.22628
G1 X142.597 Y77.19 E.01314
G1 X142.597 Y69.973 E.22628
G1 X142.178 Y69.973 E.01314
G1 X142.178 Y77.19 E.22628
G1 X141.917 Y77.19 E.00818
G1 X141.917 Y74.19 E.09406
G1 X141.759 Y74.19 E.00495
G1 X141.759 Y69.973 E.13222
G1 X141.502 Y69.973 E.00806
G1 X141.502 Y23.661 E1.45208
G1 X141.34 Y23.661 E.00508
G1 X141.34 Y74.19 E1.5843
G1 X140.921 Y74.19 E.01314
G1 X140.921 Y23.661 E1.5843
G1 X140.502 Y23.661 E.01314
G1 X140.502 Y74.19 E1.5843
G1 X140.083 Y74.19 E.01314
G1 X140.083 Y23.661 E1.5843
G1 X139.664 Y23.661 E.01314
G1 X139.664 Y74.19 E1.5843
G1 X139.245 Y74.19 E.01314
G1 X139.245 Y23.661 E1.5843
G1 X138.826 Y23.661 E.01314
G1 X138.826 Y74.19 E1.5843
G1 X138.407 Y74.19 E.01314
G1 X138.407 Y23.661 E1.5843
G1 X137.988 Y23.661 E.01314
G1 X137.988 Y74.19 E1.5843
G1 X137.569 Y74.19 E.01314
G1 X137.569 Y23.661 E1.5843
G1 X137.15 Y23.661 E.01314
G1 X137.15 Y74.19 E1.5843
G1 X136.731 Y74.19 E.01314
G1 X136.731 Y23.661 E1.5843
G1 X136.312 Y23.661 E.01314
G1 X136.312 Y74.19 E1.5843
G1 X135.893 Y74.19 E.01314
G1 X135.893 Y23.661 E1.5843
G1 X135.474 Y23.661 E.01314
M73 P0 R166
G1 X135.474 Y74.19 E1.5843
G1 X135.055 Y74.19 E.01314
G1 X135.055 Y23.661 E1.5843
G1 X134.636 Y23.661 E.01314
M73 Q0 S169
G1 X134.636 Y74.19 E1.5843
G1 X134.217 Y74.19 E.01314
M73 P1 R166
G1 X134.218 Y23.661 E1.5843
G1 X133.799 Y23.661 E.01314
M73 Q1 S169
G1 X133.799 Y74.19 E1.5843
G1 X133.555 Y74.19 E.00765
G1 X133.555 Y77.92 E.11695
G1 X133.799 Y77.92 E.00765
G1 X133.799 Y84.251 E.1985
G1 X134.217 Y84.251 E.01311
G1 X134.217 Y77.75 E.20383
M204 S1000
G1 X133.38 Y84.42 F10800
M204 S800
G1 F1200
G1 X133.38 Y23.661 E1.90506
G1 X132.961 Y23.661 E.01314
G1 X132.961 Y84.251 E1.89976
G1 X132.542 Y84.251 E.01314
G1 X132.542 Y23.661 E1.89976
G1 X132.123 Y23.661 E.01314
G1 X132.123 Y74.19 E1.5843
G1 X131.704 Y74.19 E.01314
G1 X131.704 Y23.661 E1.5843
G1 X131.285 Y23.661 E.01314
G1 X131.285 Y74.19 E1.5843
G1 X130.866 Y74.19 E.01314
G1 X130.866 Y23.661 E1.5843
G1 X130.447 Y23.661 E.01314
G1 X130.447 Y74.19 E1.5843
G1 X130.028 Y74.19 E.01314
G1 X130.028 Y23.661 E1.5843
G1 X129.609 Y23.661 E.01314
G1 X129.609 Y74.19 E1.5843
G1 X129.19 Y74.19 E.01314
G1 X129.19 Y23.661 E1.5843
G1 X128.771 Y23.661 E.01314
G1 X128.771 Y74.19 E1.5843
G1 X128.352 Y74.19 E.01314
G1 X128.352 Y23.661 E1.5843
G1 X127.933 Y23.661 E.01314
G1 X127.933 Y74.19 E1.5843
G1 X127.514 Y74.19 E.01314
G1 X127.514 Y23.661 E1.5843
G1 X127.095 Y23.661 E.01314
G1 X127.095 Y74.19 E1.5843
G1 X126.676 Y74.19 E.01314
G1 X126.676 Y23.661 E1.5843
G1 X126.257 Y23.661 E.01314
G1 X126.257 Y74.19 E1.5843
G1 X125.838 Y74.19 E.01314
M73 P1 R165
G1 X125.838 Y23.661 E1.5843
G1 X125.419 Y23.661 E.01314
M73 Q1 S168
G1 X125.419 Y74.19 E1.5843
G1 X125 Y74.19 E.01314
G1 X125 Y23.661 E1.5843
G1 X124.581 Y23.661 E.01314
G1 X124.581 Y74.19 E1.5843
G1 X124.162 Y74.19 E.01314
G1 X124.162 Y23.661 E1.5843
G1 X123.743 Y23.661 E.01314
G1 X123.743 Y74.19 E1.5843
G1 X123.324 Y74.19 E.01314
G1 X123.324 Y23.661 E1.5843
G1 X122.905 Y23.661 E.01314
G1 X122.905 Y74.19 E1.5843
G1 X122.486 Y74.19 E.01314
G1 X122.486 Y23.661 E1.5843
G1 X122.067 Y23.661 E.01314
G1 X122.067 Y74.19 E1.5843
G1 X121.648 Y74.19 E.01314
G1 X121.648 Y23.661 E1.5843
G1 X121.229 Y23.661 E.01314
G1 X121.229 Y74.19 E1.5843
G1 X120.81 Y74.19 E.01314
G1 X120.81 Y23.661 E1.5843
G1 X120.391 Y23.661 E.01314
G1 X120.391 Y74.19 E1.5843
G1 X119.972 Y74.19 E.01314
G1 X119.972 Y23.661 E1.5843
G1 X119.553 Y23.661 E.01314
G1 X119.553 Y74.19 E1.5843
G1 X119.134 Y74.19 E.01314
G1 X119.134 Y23.661 E1.5843
G1 X118.715 Y23.661 E.01314
G1 X118.715 Y74.19 E1.5843
G1 X118.296 Y74.19 E.01314
G1 X118.296 Y23.661 E1.5843
G1 X117.877 Y23.661 E.01314
M73 P2 R165
G1 X117.877 Y74.359 E1.5896
M204 S1000
;WIPE_START
G1 F8640
M73 Q2 S168
G1 X117.877 Y70.894 E-.8
;WIPE_END
G1 Z.6 F720
G1 X132.123 Y84.42 F10800
G1 Z.2 F720
G1 E.8 F2100
M204 S800
G1 F1200
G1 X132.123 Y77.92 E.2038
G1 X131.704 Y77.92 E.01314
G1 X131.704 Y84.42 E.2038
M204 S1000
;WIPE_START
G1 F8640
G1 X131.704 Y80.955 E-.8
;WIPE_END
G1 Z.6 F720
G1 X118.296 Y84.42 F10800
G1 Z.2 F720
G1 E.8 F2100
M204 S800
G1 F1200
G1 X118.296 Y77.92 E.2038
G1 X117.877 Y77.92 E.01314
G1 X117.877 Y84.251 E.1985
G1 X117.458 Y84.251 E.01314
G1 X117.458 Y23.661 E1.89976
G1 X117.039 Y23.661 E.01314
G1 X117.039 Y84.251 E1.89976
G1 X116.62 Y84.251 E.01314
M73 P2 R164
G1 X116.62 Y23.661 E1.89976
G1 X116.201 Y23.661 E.01314
M73 Q2 S167
G1 X116.201 Y74.19 E1.5843
G1 X115.783 Y74.19 E.01311
G1 X115.783 Y23.661 E1.5843
G1 X115.364 Y23.661 E.01314
G1 X115.364 Y74.19 E1.5843
G1 X114.945 Y74.19 E.01314
G1 X114.945 Y23.661 E1.5843
G1 X114.526 Y23.661 E.01314
G1 X114.526 Y74.19 E1.5843
G1 X114.107 Y74.19 E.01314
G1 X114.107 Y23.661 E1.5843
G1 X113.688 Y23.661 E.01314
G1 X113.688 Y74.19 E1.5843
G1 X113.269 Y74.19 E.01314
G1 X113.269 Y23.661 E1.5843
G1 X112.85 Y23.661 E.01314
G1 X112.85 Y74.19 E1.5843
G1 X112.431 Y74.19 E.01314
G1 X112.431 Y23.661 E1.5843
G1 X112.012 Y23.661 E.01314
G1 X112.012 Y74.19 E1.5843
G1 X111.593 Y74.19 E.01314
G1 X111.593 Y23.661 E1.5843
G1 X111.174 Y23.661 E.01314
G1 X111.174 Y74.19 E1.5843
G1 X110.755 Y74.19 E.01314
G1 X110.755 Y23.661 E1.5843
G1 X110.336 Y23.661 E.01314
G1 X110.336 Y74.19 E1.5843
G1 X109.917 Y74.19 E.01314
G1 X109.917 Y23.661 E1.5843
G1 X109.498 Y23.661 E.01314
G1 X109.498 Y74.19 E1.5843
G1 X109.079 Y74.19 E.01314
G1 X109.079 Y23.661 E1.5843
G1 X108.66 Y23.661 E.01314
G1 X108.66 Y74.19 E1.5843
G1 X108.241 Y74.19 E.01314
G1 X108.241 Y69.973 E.13222
G1 X107.822 Y69.973 E.01314
G1 X107.822 Y77.19 E.22628
G1 X107.403 Y77.19 E.01314
G1 X107.403 Y69.973 E.22628
G1 X106.984 Y69.973 E.01314
G1 X106.984 Y77.19 E.22628
G1 X106.565 Y77.19 E.01314
G1 X106.565 Y69.803 E.23161
M204 S1000
;WIPE_START
G1 F8640
G1 X106.565 Y73.268 E-.8
;WIPE_END
G1 Z.6 F720
G1 X116.201 Y84.42 F10800
G1 Z.2 F720
G1 E.8 F2100
M204 S800
G1 F1200
G1 X116.201 Y77.92 E.2038
