; generated by PrusaSlicer 2.5.1+MacOS-arm64 on 2024-02-29 at 03:47:18 UTC


;
;
; 

; external perimeters extrusion width = 0.60mm
; perimeters extrusion width = 0.50mm
; infill extrusion width = 0.50mm
; solid infill extrusion width = 0.50mm
; top infill extrusion width = 0.45mm
; first layer extrusion width = 0.42mm

M73 P0 R13
M73 Q0 S13
M201 X1000 Y1000 Z200 E5000 ; sets maximum accelerations, mm/sec^2
M203 X200 Y200 Z12 E120 ; sets maximum feedrates, mm / sec
M204 P1250 R1250 T1250 ; sets acceleration (P, T) and retract acceleration (R), mm/sec^2
M205 X8.00 Y8.00 Z0.40 E4.50 ; sets the jerk limits, mm/sec
M205 S0 T0 ; sets the minimum extruding and travel feed rate, mm/sec
M107
;TYPE:Custom
M862.3 P "MK3S" ; printer model check
M862.1 P0.4 ; nozzle diameter check
M115 U3.12.1 ; tell printer latest fw version
G90 ; use absolute coordinates
M83 ; extruder relative mode
M104 S215 ; set extruder temp
M140 S60 ; set bed temp
M190 S60 ; wait for bed temp
M109 S215 ; wait for extruder temp
G28 W ; home all without mesh bed level
G80 ; mesh bed leveling

G1 Z0.2 F720
G1 Y-3 F1000 ; go outside print area
G92 E0
G1 X60 E9 F1000 ; intro line
G1 X100 E12.5 F1000 ; intro line

G92 E0
M221 S95

; Don't change E values below. Excessive value can damage the printer.

M907 E538 ; set extruder motor current
G21 ; set units to millimeters
G90 ; use absolute coordinates
M83 ; use relative distances for extrusion
M900 K0.05 ; Filament gcode LA 1.5
M900 K30 ; Filament gcode LA 1.0
M107
;LAYER_CHANGE
;Z:0.2
;HEIGHT:0.2
;BEFORE_LAYER_CHANGE
G92 E0.0
;0.2


G1 E-.8 F2100
G1 Z.4 F720
;AFTER_LAYER_CHANGE
;0.2
G1 X109.747 Y90.982 F10800
G1 Z.2 F720
G1 E.8 F2100
M204 S800
;TYPE:Skirt/Brim
;WIDTH:0.42
G1 F1200
G1 X110.708 Y90.017 E.04271
G1 X111.856 Y89.087 E.04632
G1 X112.959 Y88.386 E.04095
G1 X114.468 Y87.657 E.05258
G1 X115.835 Y87.184 E.04535
G1 X117.098 Y86.886 E.04069
G1 X119.051 Y86.692 E.06152
G1 X121.773 Y86.876 E.08555
G1 X123.419 Y87.286 E.05318
G1 X125.458 Y88.121 E.06908
G1 X127.288 Y89.253 E.0675
G1 X132.709 Y93.966 E.2252
M73 Q1 S13
G1 X144.371 Y104.321 E.489
M73 P1 R13
G1 X144.955 Y105.006 E.02822
G1 X145.35 Y105.937 E.03173
G1 X145.439 Y106.531 E.01882
G1 X145.419 Y107.241 E.02229
G1 X145.233 Y107.978 E.02382
G1 X144.746 Y108.96 E.03436
G1 X144.189 Y109.726 E.0297
G1 X132.477 Y123.256 E.56109
G1 X131.583 Y124.002 E.0365
G1 X130.87 Y124.418 E.02589
G1 X130.085 Y124.734 E.02653
G1 X129.524 Y124.869 E.01809
G1 X128.631 Y124.875 E.02801
G1 X127.148 Y124.268 E.05024
G1 X112.022 Y111.073 E.62936
G1 X109.988 Y109.201 E.08667
G1 X108.817 Y107.804 E.05716
G1 X107.661 Y105.906 E.06967
G1 X106.86 Y103.882 E.06824
G1 X106.302 Y101.106 E.08881
G1 X106.283 Y99.195 E.05992
G1 X106.445 Y97.793 E.04424
G1 X106.79 Y96.203 E.05103
G1 X107.287 Y94.819 E.04611
G1 X107.993 Y93.378 E.05029
G1 X108.669 Y92.323 E.03928
G1 X109.71 Y91.029 E.05208
M204 S1000
G1 X110.003 Y91.265 F10800
M204 S800
G1 F1200
G1 X110.966 Y90.292 E.04292
G1 X112.074 Y89.394 E.04473
G1 X113.137 Y88.718 E.03949
G1 X114.615 Y88.004 E.05147
G1 X115.935 Y87.547 E.0438
G1 X117.153 Y87.259 E.03925
G1 X119.029 Y87.068 E.0591
G1 X121.722 Y87.25 E.08462
G1 X123.303 Y87.645 E.05112
G1 X125.286 Y88.456 E.06715
G1 X127.008 Y89.515 E.06341
G1 X127.775 Y90.117 E.03057
G1 X144.118 Y104.6 E.68467
G1 X144.641 Y105.215 E.0253
G1 X144.982 Y106.018 E.02738
G1 X145.064 Y106.569 E.01744
G1 X145.047 Y107.182 E.01924
G1 X144.883 Y107.838 E.02121
G1 X144.426 Y108.761 E.03228
G1 X143.903 Y109.48 E.02788
G1 X132.199 Y123.002 E.56073
G1 X131.387 Y123.679 E.03316
G1 X130.708 Y124.078 E.02469
G1 X129.96 Y124.379 E.02528
G1 X129.465 Y124.497 E.01594
G1 X128.667 Y124.5 E.02502
G1 X127.368 Y123.962 E.04408
G1 X110.98 Y109.626 E.68271
G1 X109.754 Y108.38 E.0548
M73 P2 R13
M73 Q2 S13
G1 X108.634 Y106.861 E.05917
G1 X107.936 Y105.606 E.04504
G1 X107.224 Y103.783 E.06136
G1 X106.678 Y101.083 E.08636
G1 X106.66 Y99.21 E.05874
G1 X106.818 Y97.849 E.04295
G1 X107.151 Y96.31 E.04937
G1 X107.636 Y94.96 E.04499
G1 X108.323 Y93.56 E.0489
G1 X108.976 Y92.542 E.03791
G1 X109.966 Y91.312 E.0495
M204 S1000
; printing object azh hgdfjhhkljhgfhghkljgfxhghj.stl id:0 copy 0
;WIPE_START
G1 F8640
G1 X110.966 Y90.292 E-.32984
G1 X112.074 Y89.394 E-.32942
G1 X112.443 Y89.16 E-.10074
;WIPE_END
G1 E-.04 F2100
G1 Z.6 F720
G1 X131.146 Y118.102 F10800
G1 Z.2 F720
G1 E.8 F2100
M204 S800
;TYPE:External perimeter
;WIDTH:0.38292
G1 F1200
G1 X130.96 Y118.315 E.00798
;WIDTH:0.407272
G1 X130.792 Y118.64 E.01109
M204 S1000
;WIPE_START
G1 F8640
G1 X130.96 Y118.315 E-.08451
G1 X131.146 Y118.102 E-.06521
;WIPE_END
G1 E-.65028 F2100
G1 Z.6 F720
G1 X125.715 Y115.821 F10800
G1 Z.2 F720
G1 E.8 F2100
M204 S800
;TYPE:Perimeter
;WIDTH:0.457664
G1 F1200
G1 X125.506 Y116.081 E.01151
;WIDTH:0.459192
G1 X125.3 Y116.527 E.01701
G1 X125.102 Y116.237 E.01216
G1 X125.063 Y116.042 E.0069
G1 X125.08 Y115.957 E.003
G1 X125.253 Y115.795 E.00819
;WIDTH:0.457664
G1 X125.519 Y115.771 E.00921
G1 X125.657 Y115.806 E.0049
M204 S1000
G1 X126.228 Y115.637 F10800
M204 S800
;TYPE:External perimeter
;WIDTH:0.419999
G1 F1200
G1 X126.226 Y115.775 E.00434
G1 X126.102 Y115.971 E.00726
G1 X125.781 Y116.38 E.01633
G1 X125.596 Y116.874 E.01653
G1 X125.529 Y116.906 E.00233
G1 X125.187 Y116.924 E.01073
G1 X124.981 Y116.777 E.00791
G1 X124.701 Y116.337 E.01637
G1 X124.661 Y116.026 E.00981
G1 X124.711 Y115.785 E.00772
G1 X124.797 Y115.674 E.00441
G1 X125.085 Y115.429 E.01186
G1 X125.511 Y115.375 E.01346
G1 X125.943 Y115.473 E.01386
G1 X126.176 Y115.607 E.00843
M204 S1000
G1 X126.144 Y115.747 F10800
;WIPE_START
G1 F8640
G1 X126.226 Y115.775 E-.04061
G1 X126.102 Y115.971 E-.05344
G1 X125.781 Y116.38 E-.12023
G1 X125.596 Y116.874 E-.12174
G1 X125.529 Y116.906 E-.01716
G1 X125.187 Y116.924 E-.07903
G1 X124.981 Y116.777 E-.05829
G1 X124.701 Y116.337 E-.12055
G1 X124.661 Y116.026 E-.07227
G1 X124.711 Y115.785 E-.05682
G1 X124.764 Y115.718 E-.01987
;WIPE_END
G1 E-.04 F2100
G1 Z.6 F720
G1 X114.456 Y106.222 F10800
G1 Z.2 F720
G1 E.8 F2100
M204 S800
;TYPE:Perimeter
;WIDTH:0.535166
G1 F1200
G1 X114.537 Y106.599 E.01578
G1 X114.715 Y107.077 E.02089
G1 X114.318 Y106.963 E.01692
G1 X114.078 Y106.728 E.01374
G1 X114.013 Y106.541 E.0081
;WIDTH:0.534722
G1 X114.031 Y106.355 E.00766
G1 X114.117 Y106.281 E.00463
G1 X114.361 Y106.203 E.01046
G1 X114.398 Y106.21 E.00154
M204 S1000
G1 X115.008 Y106.014 F10800
M204 S800
;TYPE:External perimeter
;WIDTH:0.419999
G1 F1200
G1 X114.888 Y106.149 E.00565
G1 X114.968 Y106.528 E.01216
G1 X115.152 Y107 E.0159
G1 X115.177 Y107.245 E.0077
G1 X115.056 Y107.442 E.00727
G1 X114.953 Y107.485 E.0035
G1 X114.667 Y107.511 E.00899
G1 X114.156 Y107.374 E.01661
G1 X113.951 Y107.233 E.00781
G1 X113.65 Y106.876 E.01464
G1 X113.574 Y106.574 E.00976
G1 X113.599 Y106.313 E.00822
G1 X113.695 Y106.053 E.00869
G1 X113.97 Y105.848 E.01076
G1 X114.355 Y105.757 E.01239
G1 X114.714 Y105.848 E.01161
G1 X114.956 Y105.985 E.00872
M204 S1000
G1 X114.845 Y106.09 F10800
;WIPE_START
G1 F8640
G1 X114.888 Y106.149 E-.04091
G1 X114.968 Y106.528 E-.08954
G1 X115.152 Y107 E-.11712
G1 X115.177 Y107.245 E-.0567
G1 X115.056 Y107.442 E-.05353
G1 X114.953 Y107.485 E-.02577
G1 X114.667 Y107.511 E-.06624
G1 X114.156 Y107.374 E-.12229
G1 X113.951 Y107.233 E-.05749
G1 X113.65 Y106.876 E-.10784
G1 X113.626 Y106.781 E-.02257
;WIPE_END
G1 E-.04 F2100
G1 Z.6 F720
G1 X136.943 Y104.129 F10800
G1 Z.2 F720
G1 E.8 F2100
M204 S800
G1 F1200
G1 X136.446 Y103.646 E.02172
G1 X136.224 Y103.521 E.008
G1 X135.936 Y103.563 E.00913
G1 X135.88 Y103.394 E.00558
G1 X135.917 Y103.232 E.00522
G1 X135.999 Y103.099 E.0049
G1 X136.365 Y102.852 E.01383
G1 X136.651 Y102.825 E.00901
G1 X136.89 Y102.929 E.00818
G1 X137.116 Y103.11 E.00907
G1 X137.235 Y103.544 E.01413
G1 X137.175 Y103.849 E.00975
G1 X136.981 Y104.083 E.00952
M204 S1000
G1 X136.795 Y103.758 F10800
G1 X136.734 Y103.331
M204 S800
;TYPE:Perimeter
;WIDTH:0.519514
G1 F1200
G1 X136.589 Y103.236 E.00687
M204 S1000
;WIPE_START
G1 F8640
G1 X136.734 Y103.331 E-.04006
;WIPE_END
G1 E-.75994 F2100
G1 Z.6 F720
G1 X120.491 Y96.305 F10800
G1 Z.2 F720
G1 E.8 F2100
M204 S800
;WIDTH:0.419999
G1 F1200
G1 X120.346 Y96.636 E.01134
G1 X120.111 Y96.805 E.00907
G1 X119.879 Y97.142 E.01286
G1 X119.724 Y97.243 E.00578
G1 X119.415 Y97.556 E.0138
G1 X119.338 Y97.789 E.0077
G1 X118.858 Y98.082 E.01763
G1 X118.528 Y98.488 E.0164
G1 X118.042 Y98.598 E.01564
G1 X117.73 Y98.844 E.01246
G1 X117.52 Y99.15 E.01164
G1 X117.472 Y99.343 E.00623
G1 X117.09 Y99.878 E.02061
G1 X116.362 Y100.569 E.03147
G1 X115.96 Y101.221 E.02402
G1 X115.785 Y101.31 E.00615
G1 X115.519 Y101.586 E.01203
G1 X115.2 Y102.019 E.01686
G1 X115.065 Y102.034 E.00423
G1 X114.833 Y102.163 E.00833
G1 X114.638 Y102.191 E.00618
G1 X113.099 Y101.195 E.05748
G1 X112.479 Y100.752 E.02389
G1 X111.618 Y100.067 E.03451
G1 X111.802 Y99.876 E.00832
G1 X111.974 Y99.601 E.01018
G1 X112.183 Y99.434 E.00839
G1 X112.439 Y99.034 E.01489
G1 X112.895 Y98.584 E.02009
G1 X113.324 Y98.233 E.01735
G1 X113.592 Y97.797 E.01608
G1 X113.906 Y97.395 E.01597
G1 X114.601 Y96.672 E.03145
G1 X114.897 Y96.26 E.01591
G1 X115.221 Y96.004 E.01297
G1 X115.428 Y95.729 E.01078
G1 X115.543 Y95.644 E.00447
G1 X115.781 Y95.387 E.01098
G1 X115.905 Y95.14 E.00865
G1 X116.217 Y94.808 E.0143
G1 X116.561 Y94.345 E.01808
G1 X116.802 Y94.086 E.01107
G1 X117.08 Y93.738 E.01398
G1 X117.394 Y93.42 E.014
G1 X117.498 Y93.372 E.00361
G1 X117.956 Y93.87 E.02121
G1 X118.319 Y94.135 E.01409
G1 X119.194 Y95.111 E.0411
G1 X119.638 Y95.45 E.01753
G1 X120.055 Y95.849 E.0181
G1 X120.556 Y96.21 E.01935
G1 X120.516 Y96.251 E.00177
M204 S1000
G1 X120.816 Y96.478 F10800
M204 S800
;TYPE:External perimeter
G1 F1200
G1 X120.628 Y96.96 E.01622
G1 X120.407 Y97.049 E.00746
G1 X120.117 Y97.471 E.01606
G1 X119.978 Y97.53 E.00471
G1 X119.732 Y97.763 E.01064
G1 X119.651 Y98.048 E.00929
G1 X119.173 Y98.311 E.01711
G1 X118.98 Y98.554 E.00974
G1 X118.714 Y98.824 E.01187
G1 X118.582 Y98.867 E.00436
G1 X118.243 Y98.926 E.01076
G1 X118.036 Y99.075 E.008
G1 X117.847 Y99.339 E.0102
G1 X117.824 Y99.466 E.00404
G1 X117.541 Y99.896 E.01615
G1 X117.164 Y100.346 E.0184
G1 X116.684 Y100.764 E.01995
G1 X116.257 Y101.458 E.02556
G1 X116.01 Y101.615 E.00915
G1 X115.587 Y102.146 E.02129
G1 X115.375 Y102.463 E.01195
G1 X115.332 Y102.429 E.00172
G1 X115.188 Y102.393 E.00464
G1 X114.976 Y102.544 E.00818
G1 X114.543 Y102.604 E.01371
G1 X112.465 Y101.227 E.07816
G1 X111.596 Y100.538 E.03479
G1 X111.271 Y100.238 E.01386
G1 X111.207 Y100.067 E.00574
G1 X111.237 Y99.963 E.00337
G1 X111.536 Y99.61 E.01451
G1 X111.68 Y99.348 E.00938
G1 X111.865 Y99.215 E.00712
G1 X112.143 Y98.795 E.01579
G1 X112.705 Y98.209 E.02545
G1 X113.009 Y98.01 E.01143
G1 X113.279 Y97.585 E.01578
G1 X113.768 Y96.96 E.02488
G1 X113.935 Y96.821 E.00681
G1 X114.295 Y96.452 E.01617
G1 X114.622 Y95.998 E.01755
M73 Q3 S13
G1 X114.987 Y95.708 E.01461
G1 X115.143 Y95.471 E.00889
G1 X115.317 Y95.342 E.0068
G1 X115.488 Y95.149 E.00807
G1 X115.578 Y94.937 E.00723
G1 X116.12 Y94.335 E.0254
G1 X116.44 Y93.881 E.01742
G1 X116.582 Y93.78 E.00547
G1 X116.769 Y93.526 E.00986
G1 X117.131 Y93.15 E.01638
G1 X117.467 Y92.958 E.01212
G1 X117.714 Y93.05 E.00826
G1 X118.234 Y93.614 E.02407
G1 X118.565 Y93.845 E.01266
G1 X119.416 Y94.806 E.04025
G1 X119.9 Y95.179 E.01916
M73 P3 R13
G1 X120.285 Y95.55 E.01674
G1 X120.87 Y95.952 E.02226
G1 X121.21 Y96.309 E.01548
G1 X120.965 Y96.354 E.00782
G1 X120.862 Y96.44 E.00422
M204 S1000
G1 X120.418 Y96.433 F10800
;WIPE_START
G1 F8640
G1 X120.628 Y96.96 E-.13173
G1 X120.407 Y97.049 E-.05494
G1 X120.117 Y97.471 E-.11825
G1 X119.978 Y97.53 E-.0347
G1 X119.732 Y97.763 E-.07835
G1 X119.651 Y98.048 E-.06841
G1 X119.173 Y98.311 E-.12599
G1 X118.98 Y98.554 E-.07173
G1 X118.749 Y98.788 E-.07589
;WIPE_END
G1 E-.04 F2100
G1 Z.6 F720
G1 X117.175 Y93.896 F10800
G1 Z.2 F720
G1 E.8 F2100
M204 S800
;TYPE:Solid infill
;WIDTH:0.421094
G1 F1200
G1 X119.859 Y96.58 E.11933
G1 X119.638 Y96.894 E.01207
G1 X117.055 Y94.311 E.11487
G1 X116.947 Y94.398 E.00436
G1 X116.8 Y94.59 E.00762
G1 X119.344 Y97.134 E.11313
G1 X119.194 Y97.289 E.00677
G1 X119.096 Y97.422 E.00518
G1 X116.585 Y94.911 E.11167
G1 X116.326 Y95.187 E.0119
G1 X118.831 Y97.691 E.11139
G1 X118.69 Y97.774 E.00514
G1 X118.54 Y97.935 E.00692
G1 X116.112 Y95.507 E.10797
G1 X115.869 Y95.799 E.01194
G1 X118.278 Y98.208 E.10715
G1 X118.113 Y98.221 E.00523
G1 X117.851 Y98.316 E.00875
G1 X115.612 Y96.077 E.09959
G1 X115.478 Y96.231 E.00642
G1 X115.341 Y96.341 E.00552
G1 X117.551 Y98.551 E.09828
G1 X117.384 Y98.72 E.00749
G1 X117.309 Y98.844 E.00453
G1 X115.068 Y96.602 E.09968
G1 X114.842 Y96.911 E.01204
G1 X117.146 Y99.215 E.10245
G1 X116.924 Y99.528 E.01206
G1 X114.581 Y97.185 E.10418
G1 X114.302 Y97.44 E.0119
G1 X116.678 Y99.817 E.1057
G1 X116.565 Y99.935 E.00515
G1 X116.394 Y100.068 E.0068
G1 X114.067 Y97.741 E.1035
G1 X113.837 Y98.046 E.01201
G1 X116.118 Y100.327 E.10143
G1 X115.912 Y100.656 E.01221
G1 X113.632 Y98.375 E.10143
G1 X113.58 Y98.458 E.00307
G1 X113.358 Y98.636 E.00896
G1 X115.7 Y100.978 E.10416
G1 X115.577 Y101.041 E.00434
G1 X115.403 Y101.216 E.00776
G1 X113.077 Y98.89 E.10341
G1 X112.805 Y99.152 E.01189
G1 X115.165 Y101.513 E.10498
G1 X115.091 Y101.629 E.00431
G1 X115.024 Y101.698 E.00303
G1 X114.866 Y101.749 E.00523
G1 X112.573 Y99.455 E.10198
G1 X112.453 Y99.643 E.00699
G1 X112.33 Y99.748 E.00508
G1 X114.49 Y101.907 E.09603
M204 S1000
;WIPE_START
G1 F8640
G1 X112.33 Y99.748 E-.70514
G1 X112.453 Y99.643 E-.03732
G1 X112.494 Y99.579 E-.01755
;WIPE_END
G1 E-.04 F2100
G1 Z.6 F720
G1 X113.628 Y94.258 F10800
G1 Z.2 F720
G1 E.8 F2100
M204 S800
;TYPE:Perimeter
;WIDTH:0.512538
G1 F1200
G1 X113.343 Y94.594 E.01721
G1 X113.185 Y94.713 E.0077
G1 X113.009 Y94.242 E.01963
G1 X113.114 Y94.127 E.00607
G1 X113.375 Y94.051 E.01063
G1 X113.578 Y94.094 E.00812
G1 X113.61 Y94.2 E.00434
M204 S1000
G1 X114.033 Y94.498 F10800
M204 S800
;TYPE:External perimeter
;WIDTH:0.419999
G1 F1200
G1 X113.658 Y94.891 E.01705
G1 X113.312 Y95.132 E.0132
G1 X112.88 Y95.102 E.01358
G1 X112.806 Y95.002 E.00391
G1 X112.656 Y94.488 E.01677
G1 X112.514 Y94.317 E.00698
G1 X112.632 Y94.049 E.0092
G1 X112.814 Y93.804 E.00955
G1 X113.107 Y93.658 E.01028
G1 X113.452 Y93.614 E.01091
G1 X113.701 Y93.689 E.00813
G1 X113.903 Y93.804 E.00729
G1 X114.056 Y94.212 E.01368
G1 X114.038 Y94.438 E.00709
M204 S1000
G1 X113.634 Y94.529 F10800
;WIPE_START
G1 F8640
G1 X113.658 Y94.891 E-.1366
G1 X113.312 Y95.132 E-.09723
G1 X112.88 Y95.102 E-.10001
G1 X112.806 Y95.002 E-.02881
G1 X112.656 Y94.488 E-.1235
G1 X112.514 Y94.317 E-.0514
G1 X112.632 Y94.049 E-.06776
G1 X112.814 Y93.804 E-.07032
G1 X113.107 Y93.658 E-.07568
G1 X113.144 Y93.653 E-.0087
;WIPE_END
G1 E-.04 F2100
G1 Z.6 F720
G1 X125.287 Y93.099 F10800
G1 Z.2 F720
G1 E.8 F2100
M204 S800
;WIDTH:0.38292
G1 F1200
G1 X125.032 Y93.224 E.00802
M204 S1000
; stop printing object azh hgdfjhhkljhgfhghkljgfxhghj.stl id:0 copy 0
M106 S84.15
;LAYER_CHANGE
;Z:0.5
;HEIGHT:0.3
;BEFORE_LAYER_CHANGE
G92 E0.0
;0.5


;WIPE_START
G1 F8640
G1 X125.287 Y93.099 E-.06552
;WIPE_END
G1 E-.73448 F2100
G1 Z.6 F720
;AFTER_LAYER_CHANGE
;0.5
G1 X128.053 Y89.918 F10800
G1 Z.5 F720
G1 E.8 F2100
;TYPE:Skirt/Brim
;WIDTH:0.42
G1 F2700
G1 X132.709 Y93.966 E.27366
G1 X144.371 Y104.321 E.69175
G1 X144.955 Y105.006 E.03992
G1 X145.35 Y105.937 E.04488
G1 X145.439 Y106.531 E.02662
G1 X145.419 Y107.241 E.03153
G1 X145.233 Y107.978 E.0337
G1 X144.746 Y108.96 E.04861
G1 X144.189 Y109.726 E.04201
G1 X132.477 Y123.256 E.79373
G1 X131.583 Y124.002 E.05164
G1 X130.87 Y124.418 E.03663
G1 X130.085 Y124.734 E.03753
G1 X129.524 Y124.869 E.02559
G1 X128.631 Y124.875 E.03962
G1 X127.148 Y124.268 E.07108
G1 X112.022 Y111.073 E.89031
G1 X109.988 Y109.201 E.12261
M73 Q4 S13
G1 X108.817 Y107.804 E.08086
G1 X107.661 Y105.906 E.09855
G1 X106.86 Y103.882 E.09653
M73 P4 R13
G1 X106.302 Y101.106 E.12563
G1 X106.283 Y99.195 E.08477
G1 X106.445 Y97.793 E.06258
G1 X106.79 Y96.203 E.07219
G1 X107.287 Y94.819 E.06522
G1 X107.993 Y93.378 E.07115
G1 X108.669 Y92.323 E.05557
G1 X109.747 Y90.982 E.07633
G1 X110.708 Y90.017 E.06042
G1 X111.856 Y89.087 E.06552
